src/icons/graphics/uF0A6-grafx-bezier.svg

<svg xmlns="http://www.w3.org/2000/svg" viewBox="0 0 1024 1024"><path d="M928,144a96.06425,96.06425,0,0,0-83.658,48.95923c-41.82837-1.384-93.44727,4.58716-146.56763,29.53491q-52.21454,24.52258-94.9978,67.772l38.09595-114.28833a48.05093,48.05093,0,1,0-30.3512-10.13745L543.85742,365.832a552.759,552.759,0,0,0-27.60315,50.26733C514.84326,416.0376,513.426,416,512,416a95.95365,95.95365,0,0,0-63.69617,167.75757c-38.26819,77.27295-87.9845,130.74072-148.42,159.41138-33.93982,16.09985-70.62988,24.15894-109.35388,24.05225a96.05682,96.05682,0,1,0-10.87537,63.82568q5.515.18237,11.25073.18652c39.66309-.001,86.87207-6.97363,135.32031-29.72754q52.21454-24.52258,94.9978-67.772L383.12744,848.022a48.05139,48.05139,0,1,0,30.3512,10.1377L480.14258,658.168a552.759,552.759,0,0,0,27.60315-50.26733C509.15674,607.9624,510.574,608,512,608a95.95365,95.95365,0,0,0,63.69617-167.75757c38.26819-77.27295,87.9845-130.74072,148.42-159.41138,33.9397-16.09985,70.63062-24.15625,109.35413-24.05078A96.00346,96.00346,0,1,0,928,144ZM640,112a16,16,0,1,1-16,16A15.99993,15.99993,0,0,1,640,112ZM128,784a32,32,0,1,1-32-32A31.99994,31.99994,0,0,1,128,784ZM384,912a16,16,0,1,1,16-16A16.00009,16.00009,0,0,1,384,912ZM512,544a32,32,0,1,1,32-32A31.99994,31.99994,0,0,1,512,544ZM928,272a32,32,0,1,1,32-32A31.99994,31.99994,0,0,1,928,272Z"/></svg>

<svg xmlns="http://www.w3.org/2000/svg" viewBox="0 0 1024 1024" role="img"><path d="M928 144a96.064 96.064 0 00-83.658 48.96c-41.828-1.385-93.447 4.586-146.568 29.534q-52.214 24.523-94.997 67.772l38.096-114.288a48.05 48.05 0 10-30.352-10.138l-66.664 199.992a552.759 552.759 0 00-27.603 50.267A97.27 97.27 0 00512 416a95.954 95.954 0 00-63.696 167.758c-38.268 77.273-87.985 130.74-148.42 159.41-33.94 16.1-70.63 24.16-109.354 24.053a96.057 96.057 0 10-10.875 63.826q5.515.182 11.25.186c39.663 0 86.872-6.973 135.32-29.727q52.215-24.523 94.998-67.772l-38.096 114.288a48.051 48.051 0 1030.352 10.138l66.664-199.992a552.759 552.759 0 0027.603-50.267c1.41.061 2.828.099 4.254.099a95.954 95.954 0 0063.696-167.758c38.268-77.273 87.985-130.74 148.42-159.411 33.94-16.1 70.63-24.156 109.354-24.05A96.003 96.003 0 10928 144zm-288-32a16 16 0 11-16 16 16 16 0 0116-16zM128 784a32 32 0 11-32-32 32 32 0 0132 32zm256 128a16 16 0 1116-16 16 16 0 01-16 16zm128-368a32 32 0 1132-32 32 32 0 01-32 32zm416-272a32 32 0 1132-32 32 32 0 01-32 32z"/></svg>
